artwork/resources/intui/icons/shell/status-bar/essentials-mode_dark.svg

<svg xmlns="http://www.w3.org/2000/svg" width="16" height="16" fill="none"><rect width="4" height="1" x="1" y="1" fill="#CED0D6" rx=".5"/><rect width="1" height="4" x="1" y="1" fill="#CED0D6" rx=".5"/><rect width="4" height="1" x="1" y="14" fill="#CED0D6" rx=".5"/><rect width="4" height="1" x="11" y="14" fill="#CED0D6" rx=".5"/><rect width="1" height="4" x="1" y="11" fill="#CED0D6" rx=".5"/><rect width="1" height="4" x="14" y="11" fill="#CED0D6" rx=".5"/><rect width="4" height="1" x="11" y="1" fill="#CED0D6" rx=".5"/><rect width="1" height="4" x="14" y="1" fill="#CED0D6" rx=".5"/><circle cx="8" cy="8" r="1.5" stroke="#CED0D6"/><path stroke="#CED0D6" d="M3.76949 6.46222C3.95099 5.96302 4.21856 5.50467 4.55456 5.10521L5.73911 5.15269C6.12485 5.16814 6.48503 4.96019 6.66451 4.61841L7.21613 3.56796C7.47036 3.52333 7.73227 3.5 8.00003 3.5C8.26769 3.5 8.52951 3.52331 8.78366 3.56791L9.3353 4.61841C9.51478 4.96019 9.87496 5.16814 10.2607 5.15269L11.4455 5.1052C11.7814 5.50459 12.049 5.96286 12.2305 6.46197L11.5961 7.46566C11.3898 7.79199 11.3898 8.20789 11.5961 8.53422L12.2305 9.53795C12.049 10.037 11.7815 10.4953 11.4456 10.8947L10.2607 10.8472C9.87497 10.8317 9.51478 11.0397 9.3353 11.3815L8.78359 12.4321C8.52946 12.4767 8.26767 12.5 8.00003 12.5C7.73229 12.5 7.47041 12.4767 7.2162 12.4321L6.66451 11.3815C6.48503 11.0397 6.12485 10.8317 5.73911 10.8472L4.55446 10.8947C4.21849 10.4952 3.95094 10.0369 3.76946 9.5377L4.40371 8.53422C4.60997 8.20789 4.60997 7.79199 4.40371 7.46566L3.76949 6.46222Z"/></svg>

<svg xmlns="http://www.w3.org/2000/svg" width="16" height="16" fill="none"><rect width="4" height="1" x="1" y="1" fill="#CED0D6" rx=".5"/><rect width="1" height="4" x="1" y="1" fill="#CED0D6" rx=".5"/><rect width="4" height="1" x="1" y="14" fill="#CED0D6" rx=".5"/><rect width="4" height="1" x="11" y="14" fill="#CED0D6" rx=".5"/><rect width="1" height="4" x="1" y="11" fill="#CED0D6" rx=".5"/><rect width="1" height="4" x="14" y="11" fill="#CED0D6" rx=".5"/><rect width="4" height="1" x="11" y="1" fill="#CED0D6" rx=".5"/><rect width="1" height="4" x="14" y="1" fill="#CED0D6" rx=".5"/><circle cx="8" cy="8" r="1.5" stroke="#CED0D6"/><path stroke="#CED0D6" d="M3.77 6.462c.181-.499.449-.957.785-1.357l1.184.048a1 1 0 0 0 .926-.535l.551-1.05a4.53 4.53 0 0 1 1.568 0l.551 1.05a1 1 0 0 0 .926.535l1.184-.048c.336.4.604.858.785 1.357l-.634 1.004a1 1 0 0 0 0 1.068l.634 1.004c-.181.499-.449.957-.784 1.357l-1.185-.048a1 1 0 0 0-.926.535l-.551 1.05a4.53 4.53 0 0 1-1.568 0l-.551-1.05a1 1 0 0 0-.926-.535l-1.185.048a4.495 4.495 0 0 1-.785-1.357l.635-1.004a1 1 0 0 0 0-1.068l-.635-1.004Z"/></svg>
